src/icon/entity/calendar/icon_calendar_l_black.svg

<svg width="30px" height="30px" viewBox="0 0 30 30" version="1.1" xmlns="http://www.w3.org/2000/svg"><g stroke="none" stroke-width="1" fill="none" fill-rule="evenodd"><rect x="0" y="0" width="30" height="30"/><path d="M7,11 L11,11 L11,13 L7,13 L7,11 Z M13,11 L17,11 L17,13 L13,13 L13,11 Z M7,17 L11,17 L11,19 L7,19 L7,17 Z M13,17 L17,17 L17,19 L13,19 L13,17 Z M19,11 L23,11 L23,13 L19,13 L19,11 Z" fill-opacity="0.9" fill="#0B1F35" fill-rule="nonzero"/><path d="M9,2 C8.44771525,2 8,2.44771525 8,3 L8,4 L6.5,4 C4.57,4 3,5.57 3,7.5 L3,23.5 C3,25.43 4.57,27 6.5,27 L23.5,27 C25.43,27 27,25.43 27,23.5 L27,7.5 C27,5.57 25.43,4 23.5,4 L21.87,4 L21.87,3 C21.87,2.44771525 21.4222847,2 20.87,2 C20.3177153,2 19.87,2.44771525 19.87,3 L19.87,4 L10,4 L10,3 C10,2.44771525 9.55228475,2 9,2 Z M19.87,5 L19.87,6 C19.87,6.55228475 20.3177153,7 20.87,7 C21.4222847,7 21.87,6.55228475 21.87,6 L21.87,5 L23.5,5 C24.879,5 26,6.121 26,7.5 L26,23.5 C26,24.879 24.879,26 23.5,26 L6.5,26 C5.11974521,25.9988971 4.00110288,24.8802548 4,23.5 L4,7.5 C4,6.121 5.121,5 6.5,5 L8,5 L8,6 C8,6.55228475 8.44771525,7 9,7 C9.55228475,7 10,6.55228475 10,6 L10,5 L19.87,5 Z" fill-opacity="0.9" fill="#0B1F35" fill-rule="nonzero"/></g></svg>

<svg width="30" height="30" viewBox="0 0 30 30" xmlns="http://www.w3.org/2000/svg"><g fill="none" fill-rule="evenodd"><path d="M0 0h30v30H0z"/><path d="M7 11h4v2H7v-2zm6 0h4v2h-4v-2zm-6 6h4v2H7v-2zm6 0h4v2h-4v-2zm6-6h4v2h-4v-2z" fill-opacity=".9" fill="#0B1F35" fill-rule="nonzero"/><path d="M9 2a1 1 0 0 0-1 1v1H6.5C4.57 4 3 5.57 3 7.5v16C3 25.43 4.57 27 6.5 27h17c1.93 0 3.5-1.57 3.5-3.5v-16C27 5.57 25.43 4 23.5 4h-1.63V3a1 1 0 0 0-2 0v1H10V3a1 1 0 0 0-1-1zm10.87 3v1a1 1 0 0 0 2 0V5h1.63C24.879 5 26 6.121 26 7.5v16c0 1.379-1.121 2.5-2.5 2.5h-17A2.502 2.502 0 0 1 4 23.5v-16C4 6.121 5.121 5 6.5 5H8v1a1 1 0 1 0 2 0V5h9.87z" fill-opacity=".9" fill="#0B1F35" fill-rule="nonzero"/></g></svg>
